icons/navigation.svg

<svg width="24" height="24" viewBox="0 0 24 24" fill="none" xmlns="http://www.w3.org/2000/svg">
<path fill-rule="evenodd" clip-rule="evenodd" d="M2.29292 2.29292C2.56708 2.01876 2.975 1.92779 3.33967 2.05947L21.0244 8.44563C21.0505 8.45505 21.0762 8.46555 21.1014 8.4771C21.3695 8.59997 21.5967 8.79725 21.756 9.04549C21.9153 9.29372 22 9.58247 22 9.87743C22 10.1724 21.9153 10.4611 21.756 10.7094C21.6006 10.9516 21.3804 11.1454 21.1207 11.2688L14.5527 14.5527L11.2687 21.1207C11.1453 21.3804 10.9516 21.6006 10.7094 21.756C10.4611 21.9153 10.1724 22 9.87743 22C9.58247 22 9.29372 21.9153 9.04549 21.756C8.79725 21.5967 8.59997 21.3695 8.4771 21.1014C8.46555 21.0762 8.45505 21.0505 8.44563 21.0244L2.05947 3.33967C1.92779 2.975 2.01876 2.56708 2.29292 2.29292ZM4.66417 4.66417L9.94669 19.2927L12.9129 13.3602C13.0097 13.1666 13.1666 13.0097 13.3602 12.9129L19.2927 9.94669L4.66417 4.66417Z" fill="black"/>
</svg>

<svg
  width="24"
  height="24"
  viewBox="0 0 24 24"
  xmlns="http://www.w3.org/2000/svg"
>
  <path
    fill-rule="evenodd"
    clip-rule="evenodd"
    d="M2.293 2.293a1 1 0 0 1 1.047-.234l17.684 6.387.077.031a1.54 1.54 0 0 1 .02 2.792l-6.568 3.284-3.284 6.568a1.54 1.54 0 0 1-2.823-.097L2.059 3.34a1 1 0 0 1 .234-1.047zm2.371 2.371l5.283 14.629 2.966-5.933a1 1 0 0 1 .447-.447l5.933-2.966L4.664 4.664z"
  />
</svg>
